static/img/kroki/64ccd9996807c031441b19359eb7790b.svg

<?xml version="1.0" encoding="us-ascii" standalone="no"?><svg xmlns="http://www.w3.org/2000/svg" xmlns:xlink="http://www.w3.org/1999/xlink" contentStyleType="text/css" height="679px" preserveAspectRatio="none" style="width:379px;height:679px;" version="1.1" viewBox="0 0 379 679" width="379px" zoomAndPan="magnify"><defs/><g><!--class account--><g id="elem_account"><rect codeLine="22" fill="#3D176E" height="39.7891" id="account" rx="2.5" ry="2.5" style="stroke:#000D19;stroke-width:0.5;" width="107" x="7" y="455.9"/><ellipse cx="22" cy="475.7945" fill="#ADD1B2" rx="11" ry="11" style="stroke:#181818;stroke-width:1.0;"/><path d="M24.9688,481.4352 Q24.3906,481.732 23.75,481.8727 Q23.1094,482.0289 22.4063,482.0289 Q19.9063,482.0289 18.5781,480.3883 Q17.2656,478.732 17.2656,475.607 Q17.2656,472.482 18.5781,470.8258 Q19.9063,469.1695 22.4063,469.1695 Q23.1094,469.1695 23.75,469.3258 Q24.4063,469.482 24.9688,469.7789 L24.9688,472.4977 Q24.3438,471.9195 23.75,471.6539 Q23.1563,471.3727 22.5313,471.3727 Q21.1875,471.3727 20.5,472.4508 Q19.8125,473.5133 19.8125,475.607 Q19.8125,477.7008 20.5,478.7789 Q21.1875,479.8414 22.5313,479.8414 Q23.1563,479.8414 23.75,479.5758 Q24.3438,479.2945 24.9688,478.7164 L24.9688,481.4352 Z " fill="#000000"/><text fill="#D9B8FF" font-family="Helvetica" font-size="17" lengthAdjust="spacing" textLength="65" x="41" y="481.6798">account</text></g><!--class digitalocean_resource--><g id="elem_digitalocean_resource"><rect codeLine="24" fill="#3D176E" height="74.0859" id="digitalocean_resource" rx="2.5" ry="2.5" style="stroke:#000D19;stroke-width:0.5;" width="223" x="149" y="438.76"/><ellipse cx="164" cy="458.6545" fill="#ADD1B2" rx="11" ry="11" style="stroke:#181818;stroke-width:1.0;"/><path d="M166.9688,464.2952 Q166.3906,464.592 165.75,464.7327 Q165.1094,464.8889 164.4063,464.8889 Q161.9063,464.8889 160.5781,463.2483 Q159.2656,461.592 159.2656,458.467 Q159.2656,455.342 160.5781,453.6858 Q161.9063,452.0295 164.4063,452.0295 Q165.1094,452.0295 165.75,452.1858 Q166.4063,452.342 166.9688,452.6389 L166.9688,455.3577 Q166.3438,454.7795 165.75,454.5139 Q165.1563,454.2327 164.5313,454.2327 Q163.1875,454.2327 162.5,455.3108 Q161.8125,456.3733 161.8125,458.467 Q161.8125,460.5608 162.5,461.6389 Q163.1875,462.7014 164.5313,462.7014 Q165.1563,462.7014 165.75,462.4358 Q166.3438,462.1545 166.9688,461.5764 L166.9688,464.2952 Z " fill="#000000"/><text fill="#D9B8FF" font-family="Helvetica" font-size="17" lengthAdjust="spacing" textLength="181" x="183" y="464.5398">digitalocean_resource</text><line style="stroke:#000D19;stroke-width:0.5;" x1="150" x2="371" y1="478.5491" y2="478.5491"/><text fill="#D9B8FF" font-family="sans-serif" font-size="14" font-weight="bold" lengthAdjust="spacing" textLength="27" x="160" y="500.5442">urn</text><text fill="#D9B8FF" font-family="sans-serif" font-size="14" lengthAdjust="spacing" textLength="48" x="187" y="500.5442">: string</text></g><!--class digitalocean_team--><g id="elem_digitalocean_team"><rect codeLine="27" fill="#3D176E" height="39.7891" id="digitalocean_team" rx="2.5" ry="2.5" style="stroke:#000D19;stroke-width:0.5;" width="196" x="61.5" y="633.84"/><ellipse cx="76.5" cy="653.7345" fill="#ADD1B2" rx="11" ry="11" style="stroke:#181818;stroke-width:1.0;"/><path d="M79.4688,659.3752 Q78.8906,659.672 78.25,659.8127 Q77.6094,659.9689 76.9063,659.9689 Q74.4063,659.9689 73.0781,658.3283 Q71.7656,656.672 71.7656,653.547 Q71.7656,650.422 73.0781,648.7658 Q74.4063,647.1095 76.9063,647.1095 Q77.6094,647.1095 78.25,647.2658 Q78.9063,647.422 79.4688,647.7189 L79.4688,650.4377 Q78.8438,649.8595 78.25,649.5939 Q77.6563,649.3127 77.0313,649.3127 Q75.6875,649.3127 75,650.3908 Q74.3125,651.4533 74.3125,653.547 Q74.3125,655.6408 75,656.7189 Q75.6875,657.7814 77.0313,657.7814 Q77.6563,657.7814 78.25,657.5158 Q78.8438,657.2345 79.4688,656.6564 L79.4688,659.3752 Z " fill="#000000"/><text fill="#D9B8FF" font-family="Helvetica" font-size="17" lengthAdjust="spacing" textLength="154" x="95.5" y="659.6198">digitalocean_team</text></g><!--class resource--><g id="elem_resource"><rect codeLine="29" fill="#3D176E" height="310.7578" id="resource" rx="2.5" ry="2.5" style="stroke:#000D19;stroke-width:0.5;" width="227" x="46" y="7"/><ellipse cx="114.75" cy="26.8945" fill="#ADD1B2" rx="11" ry="11" style="stroke:#181818;stroke-width:1.0;"/><path d="M117.7188,32.5352 Q117.1406,32.832 116.5,32.9727 Q115.8594,33.1289 115.1563,33.1289 Q112.6563,33.1289 111.3281,31.4883 Q110.0156,29.832 110.0156,26.707 Q110.0156,23.582 111.3281,21.9258 Q112.6563,20.2695 115.1563,20.2695 Q115.8594,20.2695 116.5,20.4258 Q117.1563,20.582 117.7188,20.8789 L117.7188,23.5977 Q117.0938,23.0195 116.5,22.7539 Q115.9063,22.4727 115.2813,22.4727 Q113.9375,22.4727 113.25,23.5508 Q112.5625,24.6133 112.5625,26.707 Q112.5625,28.8008 113.25,29.8789 Q113.9375,30.9414 115.2813,30.9414 Q115.9063,30.9414 116.5,30.6758 Q117.0938,30.3945 117.7188,29.8164 L117.7188,32.5352 Z " fill="#000000"/><text fill="#D9B8FF" font-family="Helvetica" font-size="17" lengthAdjust="spacing" textLength="71" x="140.25" y="32.7798">resource</text><line style="stroke:#000D19;stroke-width:0.5;" x1="47" x2="272" y1="46.7891" y2="46.7891"/><text fill="#D9B8FF" font-family="sans-serif" font-size="14" font-weight="bold" lengthAdjust="spacing" textLength="29" x="57" y="68.7842">age</text><text fill="#D9B8FF" font-family="sans-serif" font-size="14" lengthAdjust="spacing" textLength="66" x="86" y="68.7842">: duration</text><text fill="#D9B8FF" font-family="sans-serif" font-size="14" font-weight="bold" lengthAdjust="spacing" textLength="43" x="57" y="95.0811">atime</text><text fill="#D9B8FF" font-family="sans-serif" font-size="14" lengthAdjust="spacing" textLength="70" x="100" y="95.0811">: datetime</text><text fill="#D9B8FF" font-family="sans-serif" font-size="14" font-weight="bold" lengthAdjust="spacing" textLength="43" x="57" y="121.3779">ctime</text><text fill="#D9B8FF" font-family="sans-serif" font-size="14" lengthAdjust="spacing" textLength="70" x="100" y="121.3779">: datetime</text><text fill="#D9B8FF" font-family="sans-serif" font-size="14" font-weight="bold" lengthAdjust="spacing" textLength="14" x="57" y="147.6748">id</text><text fill="#D9B8FF" font-family="sans-serif" font-size="14" lengthAdjust="spacing" textLength="48" x="71" y="147.6748">: string</text><text fill="#D9B8FF" font-family="sans-serif" font-size="14" font-weight="bold" lengthAdjust="spacing" textLength="33" x="57" y="173.9717">kind</text><text fill="#D9B8FF" font-family="sans-serif" font-size="14" lengthAdjust="spacing" textLength="48" x="90" y="173.9717">: string</text><text fill="#D9B8FF" font-family="sans-serif" font-size="14" font-weight="bold" lengthAdjust="spacing" textLength="90" x="57" y="200.2686">last_access</text><text fill="#D9B8FF" font-family="sans-serif" font-size="14" lengthAdjust="spacing" textLength="66" x="147" y="200.2686">: duration</text><text fill="#D9B8FF" font-family="sans-serif" font-size="14" font-weight="bold" lengthAdjust="spacing" textLength="90" x="57" y="226.5654">last_update</text><text fill="#D9B8FF" font-family="sans-serif" font-size="14" lengthAdjust="spacing" textLength="66" x="147" y="226.5654">: duration</text><text fill="#D9B8FF" font-family="sans-serif" font-size="14" font-weight="bold" lengthAdjust="spacing" textLength="48" x="57" y="252.8623">mtime</text><text fill="#D9B8FF" font-family="sans-serif" font-size="14" lengthAdjust="spacing" textLength="70" x="105" y="252.8623">: datetime</text><text fill="#D9B8FF" font-family="sans-serif" font-size="14" font-weight="bold" lengthAdjust="spacing" textLength="43" x="57" y="279.1592">name</text><text fill="#D9B8FF" font-family="sans-serif" font-size="14" lengthAdjust="spacing" textLength="48" x="100" y="279.1592">: string</text><text fill="#D9B8FF" font-family="sans-serif" font-size="14" font-weight="bold" lengthAdjust="spacing" textLength="34" x="57" y="305.4561">tags</text><text fill="#D9B8FF" font-family="sans-serif" font-size="14" lengthAdjust="spacing" textLength="171" x="91" y="305.4561">: dictionary[string, string]</text></g><!--reverse link resource to account--><g id="link_resource_account"><path codeLine="41" d="M103.99,337.99 C88.82,385.7 74.42,431.02 66.59,455.65 " fill="none" id="resource-backto-account" style="stroke:#FFAF37;stroke-width:2.0;"/><polygon fill="none" points="97.56,336.11,110.29,319.17,110.9,340.36,97.56,336.11" style="stroke:#FFAF37;stroke-width:2.0;"/></g><!--reverse link resource to digitalocean_resource--><g id="link_resource_digitalocean_resource"><path codeLine="42" d="M216.11,337.92 C228.49,376.11 240.38,412.76 248.73,438.51 " fill="none" id="resource-backto-digitalocean_resource" style="stroke:#FFAF37;stroke-width:2.0;"/><polygon fill="none" points="209.22,340.36,209.7,319.17,222.53,336.04,209.22,340.36" style="stroke:#FFAF37;stroke-width:2.0;"/></g><!--reverse link account to digitalocean_team--><g id="link_account_digitalocean_team"><path codeLine="43" d="M81.54,514.2 C102.13,550.79 132.67,605.05 148.73,633.6 " fill="none" id="account-backto-digitalocean_team" style="stroke:#FFAF37;stroke-width:2.0;"/><polygon fill="none" points="74.99,517.82,71.28,496.96,87.19,510.96,74.99,517.82" style="stroke:#FFAF37;stroke-width:2.0;"/></g><!--reverse link digitalocean_resource to digitalocean_team--><g id="link_digitalocean_resource_digitalocean_team"><path codeLine="44" d="M229.32,531.12 C209.26,566.05 184.43,609.31 170.43,633.69 " fill="none" id="digitalocean_resource-backto-digitalocean_team" style="stroke:#FFAF37;stroke-width:2.0;"/><polygon fill="none" points="223.54,528.11,239.57,514.25,235.69,535.08,223.54,528.11" style="stroke:#FFAF37;stroke-width:2.0;"/></g><!--SRC=[XP9FJm8n4CNlV8ectZQIW4GHumL9Z5w8KM_6cA6TNHfsMpATrU2Vxsxh0fRT1MxalL_dlPbbhXKAB9Qy4WKMCoJNSGjjba1GY36H_PZOt98uILD81yEwUMiD7mMcKA2um_mTMKke4yzpBHS6dHDdaNK3Sf6HBOsgnZE1STv2mn4roS6vCJFfMSaObL6ZsMMQridwq9E1wWyli85PKaXhfDVhgVweZXoDEhZtbdZIdoZwyT6cbh5Hin7nHnri6OYeP6FHZR-tumCefKqcpYFjiUf41cb7Vvg3iX-1JY5tSOnZ9BIyMkAaiHMEBbKwR8Nlzy4oN4w0bDvYyTNvMIjAPveXjnB1l14wMv94xoT9IIP9hlniyltQUKOV_Zzhvpba69whae2rDK5XNLGQC8RVNfCjcbPHRfBuBNS5dyLlVXF_pwyb_3dbCiogEKLBZe5AsWvcoAg9MePdGAkNoZjTCwz-rUsIrz_TRdTpqRhSUjREvlmjJ3Xbf_rZxA5_0G00]--></g></svg>

<svg xmlns="http://www.w3.org/2000/svg" width="379" height="679" preserveAspectRatio="none" style="width:379px;height:679px"><rect width="107" height="39.789" x="7" y="455.9" fill="#3D176E" rx="2.5" ry="2.5" style="stroke:#000d19;stroke-width:.5"/><circle cx="22" cy="475.795" r="11" fill="#ADD1B2" style="stroke:#181818;stroke-width:1"/><path d="M24.969 481.435q-.578.297-1.219.438-.64.156-1.344.156-2.5 0-3.828-1.64-1.312-1.657-1.312-4.782t1.312-4.781q1.328-1.656 3.828-1.656.703 0 1.344.156.656.156 1.219.453v2.719q-.625-.578-1.219-.844-.594-.281-1.219-.281-1.343 0-2.031 1.078-.688 1.062-.688 3.156 0 2.094.688 3.172.688 1.062 2.031 1.062.625 0 1.219-.265.594-.281 1.219-.86v2.72Z"/><text x="41" y="481.68" fill="#D9B8FF" font-family="Helvetica" font-size="17" textLength="65">account</text><rect width="223" height="74.086" x="149" y="438.76" fill="#3D176E" rx="2.5" ry="2.5" style="stroke:#000d19;stroke-width:.5"/><circle cx="164" cy="458.654" r="11" fill="#ADD1B2" style="stroke:#181818;stroke-width:1"/><path d="M166.969 464.295q-.578.297-1.219.438-.64.156-1.344.156-2.5 0-3.828-1.64-1.312-1.657-1.312-4.782t1.312-4.781q1.328-1.656 3.828-1.656.703 0 1.344.156.656.156 1.219.453v2.719q-.625-.579-1.219-.844-.594-.281-1.219-.281-1.344 0-2.031 1.078-.688 1.062-.688 3.156 0 2.094.688 3.172.688 1.062 2.031 1.062.625 0 1.219-.265.594-.281 1.219-.86v2.72Z"/><text x="183" y="464.54" fill="#D9B8FF" font-family="Helvetica" font-size="17" textLength="181">digitalocean_resource</text><path d="M150 478.549h221" style="stroke:#000d19;stroke-width:.5"/><text x="160" y="500.544" fill="#D9B8FF" font-family="sans-serif" font-size="14" font-weight="bold" textLength="27">urn</text><text x="187" y="500.544" fill="#D9B8FF" font-family="sans-serif" font-size="14" textLength="48">: string</text><rect width="196" height="39.789" x="61.5" y="633.84" fill="#3D176E" rx="2.5" ry="2.5" style="stroke:#000d19;stroke-width:.5"/><circle cx="76.5" cy="653.735" r="11" fill="#ADD1B2" style="stroke:#181818;stroke-width:1"/><path d="M79.469 659.375q-.578.297-1.219.438-.64.156-1.344.156-2.5 0-3.828-1.64-1.312-1.657-1.312-4.782t1.312-4.781q1.328-1.656 3.828-1.656.703 0 1.344.156.656.156 1.219.453v2.719q-.625-.578-1.219-.844-.594-.281-1.219-.281-1.344 0-2.031 1.078-.688 1.062-.688 3.156 0 2.094.688 3.172.688 1.062 2.031 1.062.625 0 1.219-.265.594-.281 1.219-.86v2.72Z"/><text x="95.5" y="659.62" fill="#D9B8FF" font-family="Helvetica" font-size="17" textLength="154">digitalocean_team</text><rect width="227" height="310.758" x="46" y="7" fill="#3D176E" rx="2.5" ry="2.5" style="stroke:#000d19;stroke-width:.5"/><circle cx="114.75" cy="26.895" r="11" fill="#ADD1B2" style="stroke:#181818;stroke-width:1"/><path d="M117.719 32.535q-.578.297-1.219.438-.64.156-1.344.156-2.5 0-3.828-1.64-1.312-1.657-1.312-4.782t1.312-4.781q1.328-1.656 3.828-1.656.703 0 1.344.156.656.156 1.219.453v2.719q-.625-.578-1.219-.844-.594-.281-1.219-.281-1.344 0-2.031 1.078-.688 1.062-.688 3.156 0 2.094.688 3.172.688 1.062 2.031 1.062.625 0 1.219-.265.594-.281 1.219-.86v2.72Z"/><text x="140.25" y="32.78" fill="#D9B8FF" font-family="Helvetica" font-size="17" textLength="71">resource</text><path d="M47 46.789h225" style="stroke:#000d19;stroke-width:.5"/><text x="57" y="68.784" fill="#D9B8FF" font-family="sans-serif" font-size="14" font-weight="bold" textLength="29">age</text><text x="86" y="68.784" fill="#D9B8FF" font-family="sans-serif" font-size="14" textLength="66">: duration</text><text x="57" y="95.081" fill="#D9B8FF" font-family="sans-serif" font-size="14" font-weight="bold" textLength="43">atime</text><text x="100" y="95.081" fill="#D9B8FF" font-family="sans-serif" font-size="14" textLength="70">: datetime</text><text x="57" y="121.378" fill="#D9B8FF" font-family="sans-serif" font-size="14" font-weight="bold" textLength="43">ctime</text><text x="100" y="121.378" fill="#D9B8FF" font-family="sans-serif" font-size="14" textLength="70">: datetime</text><text x="57" y="147.675" fill="#D9B8FF" font-family="sans-serif" font-size="14" font-weight="bold" textLength="14">id</text><text x="71" y="147.675" fill="#D9B8FF" font-family="sans-serif" font-size="14" textLength="48">: string</text><text x="57" y="173.972" fill="#D9B8FF" font-family="sans-serif" font-size="14" font-weight="bold" textLength="33">kind</text><text x="90" y="173.972" fill="#D9B8FF" font-family="sans-serif" font-size="14" textLength="48">: string</text><text x="57" y="200.269" fill="#D9B8FF" font-family="sans-serif" font-size="14" font-weight="bold" textLength="90">last_access</text><text x="147" y="200.269" fill="#D9B8FF" font-family="sans-serif" font-size="14" textLength="66">: duration</text><text x="57" y="226.565" fill="#D9B8FF" font-family="sans-serif" font-size="14" font-weight="bold" textLength="90">last_update</text><text x="147" y="226.565" fill="#D9B8FF" font-family="sans-serif" font-size="14" textLength="66">: duration</text><text x="57" y="252.862" fill="#D9B8FF" font-family="sans-serif" font-size="14" font-weight="bold" textLength="48">mtime</text><text x="105" y="252.862" fill="#D9B8FF" font-family="sans-serif" font-size="14" textLength="70">: datetime</text><text x="57" y="279.159" fill="#D9B8FF" font-family="sans-serif" font-size="14" font-weight="bold" textLength="43">name</text><text x="100" y="279.159" fill="#D9B8FF" font-family="sans-serif" font-size="14" textLength="48">: string</text><text x="57" y="305.456" fill="#D9B8FF" font-family="sans-serif" font-size="14" font-weight="bold" textLength="34">tags</text><text x="91" y="305.456" fill="#D9B8FF" font-family="sans-serif" font-size="14" textLength="171">: dictionary[string, string]</text><g fill="none"><path d="M103.99 337.99c-15.17 47.71-29.57 93.03-37.4 117.66" style="stroke:#ffaf37;stroke-width:2"/><path d="m97.56 336.11 12.73-16.94.61 21.19-13.34-4.25z" style="stroke:#ffaf37;stroke-width:2"/></g><g fill="none"><path d="M216.11 337.92c12.38 38.19 24.27 74.84 32.62 100.59" style="stroke:#ffaf37;stroke-width:2"/><path d="m209.22 340.36.48-21.19 12.83 16.87-13.31 4.32z" style="stroke:#ffaf37;stroke-width:2"/></g><path fill="none" d="M81.54 514.2c20.59 36.59 51.13 90.85 67.19 119.4M74.99 517.82l-3.71-20.86 15.91 14-12.2 6.86z" style="stroke:#ffaf37;stroke-width:2"/><g fill="none"><path d="M229.32 531.12c-20.06 34.93-44.89 78.19-58.89 102.57" style="stroke:#ffaf37;stroke-width:2"/><path d="m223.54 528.11 16.03-13.86-3.88 20.83-12.15-6.97z" style="stroke:#ffaf37;stroke-width:2"/></g></svg>
